!! J.S. Bach "Double of the Tempo di Borea" from Partita No. 1, solo violin,
!! BWV 1002.  From 'Neue Ausgabe Saemtlicher Werke' Serie VI: Kammermusikwerke,
!! Band 1 ('Werke fuer Violine') Baerenreiter Kassel (Basel) 1958; pp.18-19
!! This file has been error-checked using the double-entry method.
!! NOTE: This 'monophonic' work has been encoded in a two-voice format.
!! NOTE: The repeats at the end of bar 20 and at the end of the movement
!!       have been expanded in this encoding.
**kern	**kern
*M2/2	*M2/2
4.r	8b
.	8dd
.	8ff#
=1	=1
1r	8bb
.	8ff#
.	8dd
.	8b
.	8dd
.	8ff#
.	8bb
.	8ff#
=2	=2
1r	8gg
.	8ff#
.	8ee
.	8dd
.	8cc#
.	8b
.	8a#
.	8gg
=3	=3
1r	8ff#
.	8dd
.	8cc#
.	8ee
.	8dd
.	8b
.	8f#
.	8cc#
=4	=4
1r	{8ee
.	8dd}
.	{8cc#
.	8dd}
.	8b
.	8f#
.	8b
.	8cc#
=5	=5
1r	8dd
.	8b
.	8f#
.	8d
.	8B
.	8d
.	8g
.	8b
=6	=6
1r	{8cc#
.	8g
.	8A}
.	8g
.	8cc#
.	8ee
.	8aa
.	8ee
=7	=7
1r	8cc#
.	8a
.	8e
.	8c#
.	8A
.	8c#
.	8f#
.	8a
=8	=8
1r	{8b
.	8f#
.	8G}
.	8f#
.	8b
.	8dd
.	8ff#
.	8aa
=9	=9
1r	8bb
.	8gg
.	8ee
.	8gg
.	8ee
.	8cc#
.	8ee
.	8cc#
=10	=10
1r	8g
.	8a
.	8b
.	8cc#
.	8dd
.	8ee
.	8ff#
.	8gg
=11	=11
1r	8aa
.	8f#
.	8a
.	8dd
.	8g
.	8ee
.	8a
.	8cc#
=12	=12
1r	{8dd
.	8a
.	8B}
.	8a
.	8dd
.	8bb
.	8dd
.	8g#
=13	=13
1r	{8cc#
.	8gn
.	8A}
.	8g
.	8cc#
.	8aa
.	8ccn
.	8f#
=14	=14
1r	8g
.	8b
.	8dd
.	8f#
.	8e
.	8cc#
.	8dd
.	8ee
=15	=15
1r	{8g
.	8f#
.	8e
.	8d
.	8c#}
.	8ee
.	8ff#
.	8gg
=16	=16
1r	{8e
.	8d
.	8c#
.	8B
.	8A}
.	8gg
.	8aa
.	8bb
=17	=17
1r	8ccc#
.	8ddd
.	8eee
.	8ddd
.	8ccc#
.	8bb
.	8aa
.	8gg
=18	=18
1r	8ff#
.	8ee
.	8gg
.	8ff#
.	8ee
.	8dd
.	8cc#
.	8b
=19	=19
1r	8a
.	8g
.	8f#
.	8dd
.	8e
.	8dd
.	8A
.	8cc#
=20	=20
1r	8dd
.	8d
.	8f#
.	8a
.	8dd
.	8b
.	8dd
.	8ff#
=21	=21
1r	8bb
.	8ff#
.	8dd
.	8b
.	8dd
.	8ff#
.	8bb
.	8ff#
=22	=22
1r	8gg
.	8ff#
.	8ee
.	8dd
.	8cc#
.	8b
.	8a#
.	8gg
=23	=23
1r	8ff#
.	8dd
.	8cc#
.	8ee
.	8dd
.	8b
.	8f#
.	8cc#
=24	=24
1r	{8ee
.	8dd}
.	{8cc#
.	8dd}
.	8b
.	8f#
.	8b
.	8cc#
=25	=25
1r	8dd
.	8b
.	8f#
.	8d
.	8B
.	8d
.	8g
.	8b
=26	=26
1r	{8cc#
.	8g
.	8A}
.	8g
.	8cc#
.	8ee
.	8aa
.	8ee
=27	=27
1r	8cc#
.	8a
.	8e
.	8c#
.	8A
.	8c#
.	8f#
.	8a
=28	=28
1r	{8b
.	8f#
.	8G}
.	8f#
.	8b
.	8dd
.	8ff#
.	8aa
=29	=29
1r	8bb
.	8gg
.	8ee
.	8gg
.	8ee
.	8cc#
.	8ee
.	8cc#
=30	=30
1r	8g
.	8a
.	8b
.	8cc#
.	8dd
.	8ee
.	8ff#
.	8gg
=31	=31
1r	8aa
.	8f#
.	8a
.	8dd
.	8g
.	8ee
.	8a
.	8cc#
=32	=32
1r	{8dd
.	8a
.	8B}
.	8a
.	8dd
.	8bb
.	8dd
.	8g#
=33	=33
1r	{8cc#
.	8gn
.	8A}
.	8g
.	8cc#
.	8aa
.	8ccn
.	8f#
=34	=34
1r	8g
.	8b
.	8dd
.	8f#
.	8e
.	8cc#
.	8dd
.	8ee
=35	=35
1r	{8g
.	8f#
.	8e
.	8d
.	8c#}
.	8ee
.	8ff#
.	8gg
=36	=36
1r	{8e
.	8d
.	8c#
.	8B
.	8A}
.	8gg
.	8aa
.	8bb
=37	=37
1r	8ccc#
.	8ddd
.	8eee
.	8ddd
.	8ccc#
.	8bb
.	8aa
.	8gg
=38	=38
1r	8ff#
.	8ee
.	8gg
.	8ff#
.	8ee
.	8dd
.	8cc#
.	8b
=39	=39
1r	8a
.	8g
.	8f#
.	8dd
.	8e
.	8dd
.	8A
.	8cc#
=40	=40
2.r	8dd
.	8d
.	8f#
.	8a
.	8dd
.	8ff#
8r	8aa
8dd	8ff#
=41	=41
8cc#	4ee
8a	.
8dd	4ff#
8a	.
8ee	4gg
8a	.
8dd	4ff#
8a	.
=42	=42
4a 4cc#	8ee
.	8dd
2.r	8cc#
.	8dd
.	8ee
.	8g
.	8f#
.	8dd
=43	=43
8e	4cc#
8A	.
8f#	4dd
8A	.
8g	4ee
8A	.
8f#	4dd
8A	.
=44	=44
8A 8e	8cc#
8r	8b
2.r	8a
.	8b
.	8cc#
.	8a
.	8f#
.	8dd#
=45	=45
1r	8ee
.	8b
.	8gg
.	8A
.	8B
.	8gg
.	8ff#
.	8dd#
=46	=46
1r	{8ee
.	8dd#
.	8ee}
.	8ccn
.	8b
.	8a
.	8g
.	8f#
=47	=47
1r	{8g
.	8b
.	8ee}
.	8bb
.	{8aa
.	8gg}
.	{8ff#
.	8ee}
=48	=48
1r	8ee
.	8b
.	8g
.	8b
.	8e
.	8b
.	8gg
.	8dd
=49	=49
1r	8cc#
.	8ee
.	8a
.	8g
.	8f#
.	8aa
.	8gg
.	8e
=50	=50
1r	8d
.	8gg
.	8ff#
.	8ee
.	8dd
.	8ff#
.	8bb
.	8dd
=51	=51
1r	8e#
.	8cc#
.	8gg#
.	8bb
.	8aa
.	8cc#
.	8f#
.	8aa
=52	=52
1r	8gg#
.	8ff#
.	8ee#
.	8dd#
.	8cc#
.	8gg#
.	8aa
.	8bb
=53	=53
1r	8ccc#
.	8een
.	8b
.	8ee
.	8a#
.	8ee
.	8ccc#
.	8ee
=54	=54
1r	8b
.	8ee
.	8dd
.	8cc#
.	8dd
.	8ff#
.	8gg#
.	8aa
=55	=55
1r	8bb
.	8dd
.	8a
.	8dd
.	8g#
.	8dd
.	8f#
.	8dd
=56	=56
1r	8e#
.	8g#
.	8cc#
.	8dd#
.	8ee#
.	8ff#
.	8gg#
.	8aa
=57	=57
1r	{8bb
.	8aa}
.	{8gg#
.	8ff#}
.	{8cc#
.	16aa
.	16gg#
.	8ff#}
.	8ee#
=58	=58
1r	8ff#
.	8b
.	8a
.	8g#
.	8f#
.	8e
.	8d#
.	8c#
=59	=59
1r	8B
.	8d#
.	8f#
.	8a
.	8ccn
.	8dd#
.	8ff#
.	8aa
=60	=60
1r	8e
.	8aa
.	8gg
.	8ff#
.	8gg
.	8dn
.	8c#
.	8B
=61	=61
1r	8A
.	8c#
.	8e
.	8g
.	8b-
.	8cc#
.	8ee
.	8gg
=62	=62
1r	8d
.	8gg
.	8ff#
.	8ee
.	{8dd
.	8cc#}
.	8ee
.	8bn
=63	=63
1r	{8b
.	8a#}
.	8ee
.	8an
.	{8a
.	8g#}
.	8ee
.	8gn
=64	=64
1r	8g
.	8f#
.	8e
.	8d#
.	8e
.	8g
.	8f#
.	8e
=65	=65
1r	8dn
.	8B
.	8d
.	8f#
.	8g
.	8a#
.	8b
.	8cc#
=66	=66
1r	8f#
.	8dd
.	8cc#
.	8b
.	8a#
.	8cc#
.	8f#
.	8g#
=67	=67
1r	8a#
.	8b
.	8cc#
.	8dd
.	8ee
.	8ff#
.	8gg
.	8ff#
=68	=68
1r	{8gg
.	8ee
.	8a#}
.	8ee
.	{8gg
.	8ee}
.	{8gg
.	8ee}
=69	=69
1r	{8gg
.	8ee
.	8a#}
.	8b
.	8cc#
.	8dd
.	8ee
.	8ff#
=70	=70
1r	{8gg#
.	8ee#
.	8b}
.	8ee#
.	8gg#
.	8ee#
.	8gg#
.	8ee#
=71	=71
1r	{8gg#
.	8ee#
.	8b}
.	8cc#
.	8dd
.	8ee#
.	8ff#
.	8gg#
=72	=72
1r	8aa#
.	8een
.	8cc#
.	8dd
.	8ee
.	8ff#
.	8gg#
.	8aa#
=73	=73
1r	8bb
.	8ccc#
.	8ddd
.	8bb
.	8ff#
.	8bb
.	8ccc#
.	8aa#
=74	=74
1r	8bb
.	8ff#
.	8ee
.	8cc#
.	{8dd
.	8b
.	8a#
.	8b}
=75	=75
1r	{8G
.	8dd
.	8cc#
.	8b}
.	{8a#
.	8b}
.	{8ee
.	8b}
=76	=76
1r	{8ff#
.	8dd
.	8cc#
.	8b}
.	{8a#
.	8b}
.	{8f#
.	8g}
=77	=77
1r	8an
.	{8ccn
.	8b
.	8a}
.	8d#
.	{8a
.	8g
.	8f#}
=78	=78
1r	8e
.	8b
.	8cc#
.	8dd
.	8ee
.	8ff#
.	8gg#
.	8ee
=79	=79
1r	8b
.	8dd
.	8cc#
.	8b
.	8e#
.	8b
.	8a#
.	8g#
=80	=80
1r	8f#
.	8cc#
.	8dd
.	8ee
.	8ff#
.	8gg#
.	8aa#
.	8bb
=81	=81
1r	{8ccc#
.	8ee
.	8a#}
.	8ee
.	8ccc#
.	8ee
.	8ccc#
.	8ee
=82	=82
1r	{8ccc#
.	8ee
.	8a#}
.	8b
.	8cc#
.	8dd
.	8ee
.	8ff#
=83	=83
1r	8gg
.	8aa
.	8gg
.	8ff#
.	8ee
.	8dd
.	8cc#
.	8b
=84	=84
1r	8aa#
.	8bb
.	8aa#
.	8gg#
.	8ff#
.	8ee
.	8dd
.	8cc#
=85	=85
1r	8dd
.	8b
.	8dd
.	8ff#
.	8bb
.	8ff#
.	8dd
.	8b
=86	=86
1r	8gg
.	8ff#
.	8ee
.	8dd
.	8cc#
.	8b
.	8a#
.	8gg
=87	=87
1r	8ff#
.	8dd
.	8cc#
.	8ee
.	8dd
.	8b
.	8f#
.	8a#
=88	=88
2.r	2B
.	8r
.	8ff#
8r	8aa
8dd	8ff#
=89	=89
8cc#	4ee
8a	.
8dd	4ff#
8a	.
8ee	4gg
8a	.
8dd	4ff#
8a	.
=90	=90
4a 4cc#	8ee
.	8dd
2.r	8cc#
.	8dd
.	8ee
.	8g
.	8f#
.	8dd
=91	=91
8e	4cc#
8A	.
8f#	4dd
8A	.
8g	4ee
8A	.
8f#	4dd
8A	.
=92	=92
8A 8e	8cc#
8r	8b
2.r	8a
.	8b
.	8cc#
.	8a
.	8f#
.	8dd#
=93	=93
1r	8ee
.	8b
.	8gg
.	8A
.	8B
.	8gg
.	8ff#
.	8dd#
=94	=94
1r	{8ee
.	8dd#
.	8ee}
.	8ccn
.	8b
.	8a
.	8g
.	8f#
=95	=95
1r	{8g
.	8b
.	8ee}
.	8bb
.	{8aa
.	8gg}
.	{8ff#
.	8ee}
=96	=96
1r	8ee
.	8b
.	8g
.	8b
.	8e
.	8b
.	8gg
.	8dd
=97	=97
1r	8cc#
.	8ee
.	8a
.	8g
.	8f#
.	8aa
.	8gg
.	8e
=98	=98
1r	8d
.	8gg
.	8ff#
.	8ee
.	8dd
.	8ff#
.	8bb
.	8dd
=99	=99
1r	8e#
.	8cc#
.	8gg#
.	8bb
.	8aa
.	8cc#
.	8f#
.	8aa
=100	=100
1r	8gg#
.	8ff#
.	8ee#
.	8dd#
.	8cc#
.	8gg#
.	8aa
.	8bb
=101	=101
1r	8ccc#
.	8een
.	8b
.	8ee
.	8a#
.	8ee
.	8ccc#
.	8ee
=102	=102
1r	8b
.	8ee
.	8dd
.	8cc#
.	8dd
.	8ff#
.	8gg#
.	8aa
=103	=103
1r	8bb
.	8dd
.	8a
.	8dd
.	8g#
.	8dd
.	8f#
.	8dd
=104	=104
1r	8e#
.	8g#
.	8cc#
.	8dd#
.	8ee#
.	8ff#
.	8gg#
.	8aa
=105	=105
1r	{8bb
.	8aa}
.	{8gg#
.	8ff#}
.	{8cc#
.	16aa
.	16gg#
.	8ff#}
.	8ee#
=106	=106
1r	8ff#
.	8b
.	8a
.	8g#
.	8f#
.	8e
.	8d#
.	8c#
=107	=107
1r	8B
.	8d#
.	8f#
.	8a
.	8ccn
.	8dd#
.	8ff#
.	8aa
=108	=108
1r	8e
.	8aa
.	8gg
.	8ff#
.	8gg
.	8dn
.	8c#
.	8B
=109	=109
1r	8A
.	8c#
.	8e
.	8g
.	8b-
.	8cc#
.	8ee
.	8gg
=110	=110
1r	8d
.	8gg
.	8ff#
.	8ee
.	{8dd
.	8cc#}
.	8ee
.	8bn
=111	=111
1r	{8b
.	8a#}
.	8ee
.	8an
.	{8a
.	8g#}
.	8ee
.	8gn
=112	=112
1r	8g
.	8f#
.	8e
.	8d#
.	8e
.	8g
.	8f#
.	8e
=113	=113
1r	8dn
.	8B
.	8d
.	8f#
.	8g
.	8a#
.	8b
.	8cc#
=114	=114
1r	8f#
.	8dd
.	8cc#
.	8b
.	8a#
.	8cc#
.	8f#
.	8g#
=115	=115
1r	8a#
.	8b
.	8cc#
.	8dd
.	8ee
.	8ff#
.	8gg
.	8ff#
=116	=116
1r	{8gg
.	8ee
.	8a#}
.	8ee
.	{8gg
.	8ee}
.	{8gg
.	8ee}
=117	=117
1r	{8gg
.	8ee
.	8a#}
.	8b
.	8cc#
.	8dd
.	8ee
.	8ff#
=118	=118
1r	{8gg#
.	8ee#
.	8b}
.	8ee#
.	8gg#
.	8ee#
.	8gg#
.	8ee#
=119	=119
1r	{8gg#
.	8ee#
.	8b}
.	8cc#
.	8dd
.	8ee#
.	8ff#
.	8gg#
=120	=120
1r	8aa#
.	8een
.	8cc#
.	8dd
.	8ee
.	8ff#
.	8gg#
.	8aa#
=121	=121
1r	8bb
.	8ccc#
.	8ddd
.	8bb
.	8ff#
.	8bb
.	8ccc#
.	8aa#
=122	=122
1r	8bb
.	8ff#
.	8ee
.	8cc#
.	{8dd
.	8b
.	8a#
.	8b}
=123	=123
1r	{8G
.	8dd
.	8cc#
.	8b}
.	{8a#
.	8b}
.	{8ee
.	8b}
=124	=124
1r	{8ff#
.	8dd
.	8cc#
.	8b}
.	{8a#
.	8b}
.	{8f#
.	8g}
=125	=125
1r	8an
.	{8ccn
.	8b
.	8a}
.	8d#
.	{8a
.	8g
.	8f#}
=126	=126
1r	8e
.	8b
.	8cc#
.	8dd
.	8ee
.	8ff#
.	8gg#
.	8ee
=127	=127
1r	8b
.	8dd
.	8cc#
.	8b
.	8e#
.	8b
.	8a#
.	8g#
=128	=128
1r	8f#
.	8cc#
.	8dd
.	8ee
.	8ff#
.	8gg#
.	8aa#
.	8bb
=129	=129
1r	{8ccc#
.	8ee
.	8a#}
.	8ee
.	8ccc#
.	8ee
.	8ccc#
.	8ee
=130	=130
1r	{8ccc#
.	8ee
.	8a#}
.	8b
.	8cc#
.	8dd
.	8ee
.	8ff#
=131	=131
1r	8gg
.	8aa
.	8gg
.	8ff#
.	8ee
.	8dd
.	8cc#
.	8b
=132	=132
1r	8aa#
.	8bb
.	8aa#
.	8gg#
.	8ff#
.	8ee
.	8dd
.	8cc#
=133	=133
1r	8dd
.	8b
.	8dd
.	8ff#
.	8bb
.	8ff#
.	8dd
.	8b
=134	=134
1r	8gg
.	8ff#
.	8ee
.	8dd
.	8cc#
.	8b
.	8a#
.	8gg
=135	=135
1r	8ff#
.	8dd
.	8cc#
.	8ee
.	8dd
.	8b
.	8f#
.	8a#
=136	=136
2r	2B
8r	8r
==	==
*-	*-
